X: 9
T: Forget Me Not
C: Larry Redican
Z: gian marco
S: https://thesession.org/tunes/233#setting51457
R: reel
M: 4/4
L: 1/8
K: Dmaj
|:(3ABc|d2cd BAFE|DB~B2 ABDE|FAde f2ed|Beed e/f/g fe|
d2cd BAFE|DB~B2 ABDE|FAdf ecdB|AFEG FD:|
|:(3ABc|d2ad bdad|gdfd edBd|Addc defg|afdf e2(3fga|
bafb afea|fede f2dB|ABdf e2dB|AFEG FD:|

